!!!OTL: Der falsche Bursche (89), S. 233
!!!id: T0247
**kern
*clefG2
*k[b-e-a-]
*E-:
{8e-
8f
=1
4.g
8e-
8f
8e-
=2
8d
8f
4f}
=3
{8f
8b-
=4
4.b-
8b-
8cc
8b-
=5
4g}
4r
=6
{8e-
8f
=7
4.g
8e-
8f
8e-
=8
8d
8f
4f}
=9
{8f
8b-
=10
4.b-
8b-
8cc
8b-
=11
4g}
4r
=12
{8e-
8f
=13
8g
8e-
8cc
8b-
8b-
8a-
=14
4f}
4r
=15
{8f
8g
=16
8a-
8b-
8dd
8cc
8b-
8a-
=17
4g}
4r
=18
{8e-
8f
=19
8g
8e-
8cc
8b-
8b-
8a-
=20
4f}
2r
=21
{8dd
8cc
8b-
8b-
8cc
8dd
=22
4ee-}
4r
==
*-
!!!minrhy: 8
!!!meters: 3/4 ]  ZZ[8
!!!cut: Der falsche Bursche (89), S. 233
!!!reg: Luxemburg
!!!trd: Singendes Volk, Esch-Alzette 1937 posth.
!!!rhy1: XX  X_.XXX  XXX_
!!!rhy2: XX  X_.XXX  X_0_
!!!key: T0247  08 Eb 3/4 ]  ZZ[8
!!!mod: HEPTATONIK IONISCH]  AMBITUS[9b
!!!kad: 2323232+1
!!!akz: 3-7_53_3-7_53_32_43_32_7+1_
!!!fot: 'a__b__a__b__c__cs"c__d__
!!!for: 'a__aw_a__aw_b__b__bv_bv_
!!!fok: '~a_^a_~a_^a_^a_^a_^a_Va_
!! PHRAS[VORWIEGEND AUFTAKTIG]
!!!fkt: Liebeslieder
!!!bem: Junglinster, fff Sisy Minden, 27.2.1932
!! THILL, Mathias:
!! PR[23] 2K[5] 2G[8] 3K[8] 3G[8] 4A[0] 4Ü[0] 5A[0] 6K[0] 6G[3]
!! 7K[0] 7G[0] 8A[0] MEHR[0] SI[31] ABS[39] SR[13] SP[18]
!! ST[8] 2k[10] 2g[21] 3k[8] 3g[8] 4d[0] 4ü[0] 5d[0] 6k[0] 6g[0]
!! 7k[0] 7g[0] 8d[0] mehr[0] si[46] dm[-15] sr[31] sp[15]
!! 1F[5] 2F[57] 3F[34] 4F[5] LF[0] 2P[0] 3P[0] 4P[0] TRI[0] DF[4] AB[44]
!! TF[0] U3K[0] U3[0] U4[0] U4Ü[0] U5[0] U6K[0] U6[0] U7K[0] U7[0]
!! N1[8] N2K[0] N2[5] N3K[0] N3[23] N4[15] N4Ü[0] N5[28] N6K[0] N6[15]
!!!n7k: 0] N7[3] O1[5] O2K[0] O2[0] O3K[0] O3[0] HÖ[0
